X:1
T:B minor Daniel Belknap, 1802
T:Isaac Watts, 1709 (Hymn 163, Book 2)  86. 86. (C. M.)
T:Salem
T:Transcribed from The Village Compilation, 1806.
%%score [ 1 2 3 4 ]
L:1/8
M:4/4
K:D
V:1 treble nm="Treble" snm="Tr."
V:2 treble nm="Counter" snm="C."
V:3 treble-8 nm="Tenor" snm="T."
V:4 bass nm="Bass" snm="B."
V:1
 B4 | d6 e2 | f6 d2 | (d2 c2) B4 | ^A8 | d4 d2 dc | B4 ^A4 | B8 | f4 f2 e2 | (d2 B4) d2 | c4 A4 | %11
w: 1.~Dear|Lord! be-|hold our|sore * dis-|tress:|Our sins at- *|tempt to|reign;|Stretch out thine|arm * of|con- quering|
 A8 | A4 d2 f2 | (e2 d2) c4 | B8 | d4 f>e dc | d2 d2 e>d cB | c6 Bc | d3 c B2 B2 | ^A6 B2 | %20
w: grace,|And let thy|foes * be|slain.|The li- * on *|with his dread- * ful *|roar Af- *|frights thy fee- ble|sheep; Re-|
 f2 f2 f2 d2 | cB cd c2 Bc | d3 c B2 ^A2 | B8 |] %24
w: veal the glo- ry|of * thy * power, And *|chain him to the|deep.|
V:2
 F4 | F6 F2 | F6 F2 | F4 F4 | F8 | A4 A2 AG | F4 F4 | F8 | F2 A2 A2 A2 | (B2 F4) A2 | A4 A4 | A8 | %12
w: 2.~Must|we in-|dulge a|long des-|pair?|Shall our pe- *|ti- tions|die?|Our mour- * nings|ne- * ver|reach thine|ear,|
 F4 F2 F2 | G4 F4 | F8 |"^If        thou         des   –" z8 | %16
w: Nor tears af-|fect thine|eye?||
"^– pise     a       mor    –    tal            groan,          Yet         hear         a      Sav   –    ior's           blood;" z8 | %17
w: |
 z8 | z8 | z4 z2 F2 | F2 F2 F2 A2 | A2 A2 A2 G2 | F3 G F2 F2 | F8 |] %24
w: ||An|Ad- vo- cate so|near the throne Pleads|and pre- vails with|God.|
V:3
 B4 | B6 c2 | d6 f2 | (f2 e2) d4 | c8 | f4 f2 fe | d4 c4 | B8 | A4 A2 A2 | d6 f2 | e4 c4 | d8 | %12
w: 3.~He|brought the|Spi- rit's|power- * ful|sword|To slay our *|dead- ly|foes;|Our sins shall|die be-|neath thy|word,|
 c4 B2 B2 | B4 ^A4 | B8 | B4 d>c B^A | B2 f2 g>f ed | e6 de | f3 e d2 Bd | c6 Bc | d2 d2 d2 f2 | %21
w: And hell in|vain op-|pose.|How bound- * less *|is our Fa- * ther's *|grace, In *|height, and depth, and *|length! He *|makes his Son our|
 ed ef e2 de | f3 e d2 c2 | B8 |] %24
w: right- * eous- * ness, His *|Spi- rit is our|strength.|
V:4
 B,,4 | B,,6 F,2 | B,6 B,2 | ^A,4 B,4 | F,8 | D,4 D,2 A,2 | B,4 F,4 | B,,8 | D,4 D,2 C,2 | %9
 B,,6 F,2 | A,4 A,,4 | D,8 | F,4 B,,2 B,,2 | E,4 F,4 | B,,8 | z8 | z8 | z8 | z8 | z4 z2 F,2 | %20
 B,2 B,2 B,2 F,2 | A,2 A,2 A,2 B,2 | D,3 E, F,2 F,2 | B,,8 |] %24

